ressources/icons/document-open-recent.svg

<svg height="16" viewBox="0 0 16 16" width="16" xmlns="http://www.w3.org/2000/svg"><path d="m8 1c-1.79145 0-3.5823688.6839313-4.9492188 2.0507812-2.73369995 2.7337-2.73369995 7.1647378 0 9.8984378 2.7337 2.7337 7.1647378 2.7337 9.8984378 0s2.7337-7.1647378 0-9.8984378c-1.36685-1.3668499-3.157769-2.0507812-4.949219-2.0507812zm-.0722656 2a5 5 0 0 1 3.6074216 1.4648438 5 5 0 0 1 0 7.0703122 5 5 0 0 1 -7.0703122 0 5 5 0 0 1 0-7.0703122 5 5 0 0 1 3.4628906-1.4648438zm-.9316406 1v.1328125 4.28125l1.7070312 1.7070315.6152344.615234.0917968.091797.7070318-.707031.707031-.7070315-.09375-.09375-.613281-.6132813-1.1210942-1.1210937v-3.453125-.1328125z" fill="#404040"/></svg>

<svg xmlns="http://www.w3.org/2000/svg" width="16" height="16" viewBox="0 0 16 16">
 <defs>
  <style id="current-color-scheme" type="text/css">
   .ColorScheme-Text { color:#404040; } .ColorScheme-Highlight { color:#5294e2; }
  </style>
 </defs>
 <path style="fill:currentColor" class="ColorScheme-Text" d="M 8 1 C 6.20855 1 4.4176312 1.6839313 3.0507812 3.0507812 C 0.31708125 5.7844812 0.31708125 10.215519 3.0507812 12.949219 C 5.7844812 15.682919 10.215519 15.682919 12.949219 12.949219 C 15.682919 10.215519 15.682919 5.7844812 12.949219 3.0507812 C 11.582369 1.6839313 9.79145 1 8 1 z M 7.9277344 3 A 5 5 0 0 1 11.535156 4.4648438 A 5 5 0 0 1 11.535156 11.535156 A 5 5 0 0 1 4.4648438 11.535156 A 5 5 0 0 1 4.4648438 4.4648438 A 5 5 0 0 1 7.9277344 3 z M 6.9960938 4 L 6.9960938 4.1328125 L 6.9960938 8.4140625 L 8.703125 10.121094 L 9.3183594 10.736328 L 9.4101562 10.828125 L 10.117188 10.121094 L 10.824219 9.4140625 L 10.730469 9.3203125 L 10.117188 8.7070312 L 8.9960938 7.5859375 L 8.9960938 4.1328125 L 8.9960938 4 L 6.9960938 4 z"/>
</svg>
